X:1
T:Title
L:1/8
Q:1/4=120
M:4/4
K:C
V:1 treble nm="Church Organ, Staff"
V:1
 G2 c2 E2 A2- | AG E2 C2 F2- | FE D2 E2 F2 | G2 E4 z2 | G2 c2 E2 A2- | AG ^F2 E2 D2 | B2 B2 A2 G2 | %7
w: By~Charles~Darnton * * *|||||||
 A2 B4 z2 | B2 B2- B/ z/ B c2 | B2 A2- A/ z/ E E2 | E2 A2- A/ z/ A B2 | A2 d6 | %12
w: |||||
 _e2 =e2- e/ z/ e e2 | d2 c2 B2 A2 | A2 G2 A2 B2 | c2 d4 z2 | G2 c2- c/ z/ G G2 | %17
w: |||||
 c2 d2- d/ z/ G G2 | B2 c2 G2 B2 | A2 G4 z2 | G2 f2- f/ z/ e d2 | c2 B2 A2 G2 | c2 A2 d2 A2 | %23
w: ||||||
 B2 c6 |] %24
w: |

